X: 9564
T: Davey's
R: reel
M: 4/4
K: Amajor
|:F2AF EFAB|c2Ac BF F2|EFAB cefc|ec (3Bcd cBAE|
F2AF EFAB|c2Ac BF F2|EFAB cefc|ec (3Bcd cAA2||
|:cdec defd|ceec BcAB|ceec defa|ecBA FAAB|
cdec defd|ceec BcAB|ABce a2fa|1 ec (3Bcd cAAB:|2 ec (3Bcd cBAE||

